assignmentsFolder/03-portfolio/images/facebook.svg

<?xml version="1.0" encoding="UTF-8"?>
<svg enable-background="new 0 0 178 314" version="1.0" viewBox="0 0 178 314" xml:space="preserve" xmlns="http://www.w3.org/2000/svg">
<path d="m54.42 306.5h58.65v-130.6h43.11l9.02-55.14h-50.63v-34.31s5.79-29.21 29.21-29.21 23.42 0 23.42 0v-45.76s-21.05-4.98-43.11-4.98c-40.6 0-69.68 26.04-69.68 73.16v41.61h-48.61v53.64h49.13l-0.51 131.59z" fill="#333333"/>
</svg>

<svg xmlns="http://www.w3.org/2000/svg" width="161.4" height="300" viewBox="0 0 161.4 300">
  <path id="facebook" d="M54.42,306.5h58.65V175.9h43.11l9.02-55.14H114.57V86.45s5.79-29.21,29.21-29.21H167.2V11.48A213.042,213.042,0,0,0,124.09,6.5c-40.6,0-69.68,26.04-69.68,73.16v41.61H5.8v53.64H54.93Z" transform="translate(-5.8 -6.5)" fill="#f8ebac"/>
</svg>
